X:1
T:Brudmarsch fr\aan Malmberget
R:Marsch
R:Brudmarsch
C:Olof Lagerqvist
Z:C-G Magnusson, 2008-11-30
O:Malmberget, Lappland, Sverige
D:JP Nystr\"oms - Kallvattudans (1981)
S:http://www.folkwiki.se/pub/cache/Brudmarsch_fr%E5n_Malmberget_111987.abc
N:Upptecknad av Svante Lindqvist.
Q:90
M:2/4
L:1/8
K:Gm
D2 |:\
G>^F GA | B{cB}A/B/ c(3(B/c/B/) | G(3(B/c/B/) ^F(3(B/c/B/) | GD B,G, |\
G>^F GA | B{cB}A/B/ cB/c/ | d>e d/^c/d/e/ |1 d3 z :|2 d2 zd ||
|:\
gg ff | d2 B>c | de/d/ cA | {Bc}BG AD |\
G>A Bc | de/d/ cA | BG A^F/D/ |1 G3 d :|2 G2 |]
